X:1
T: Irish Hornpipe
C:
R:Reel
Q: 232
K:Am
M:4/4
L:1/16
|:e3d|c3d A3c A4 e3d|c3d B3c a4 c3d|e3f e3d c3d e3f|g3e d3c d4 e3d|
c3d B3c A3c B3A|G3E C3E G4 e3d|c4 B3A ^G3A B3G|A12:|
|:c3d|e4 a8 ^g3a|b4 a8 e3d|g3^f g3a g4 =f3e|d3c B3A G4 c3d|
e4 a8 ^g3a|b4 a8 e3d|c4 B3A ^G3A B3A|A12:|
